X:445
T: Willy Reidy's
S: "Johnny O'Leary of Sliabh Luachra" (#224)
Z: B.Black
L: 1/8
M: 2/4
R: polka
K: G
G/A/G/F/ GA|BG/B/ AB/c/|d2 cA|GF ED|
G>F GA|BG/B/ AB/c/|dd cB/A/|G2 G2 :|
d>e dc|Bc dB/d/|ed cB/c/|AG FD|
d>e dc|Bc dB/d/|dd cA|G2 G2 :|
